G28


; Pass 0

; First Move
G0 X2.59 Y0.81 
M3
 
; Generated by LaserWeb (lw.raster-to-gcode.js)
; Size       : 0 x 0 mm
; PPI        : x: 300 - y: 300
; PPM        : x: 0.0846666667 - y: 0.0846666667
; Tool diam. : 0.2 mm
; Feed rate  : 5000 mm/min
; Beam range : 0 to 999
; Beam power : 0 to 100 %
; Options    : trimLine, joinPixel, burnWhite

G1 F5000

G1 X2.59 Y0.81 S0.0000
X9.68
X21.98 S438.7765
X22.08 S191.9647
X29.16 S0.0000
Y1.01
X22.08
X9.18 S999.0000
X9.08 S814.8706
X1.99 S0.0000
X0.59 Y1.21
X7.68
X7.88 S188.0471
X9.08 S0.0000
X22.08 S999.0000
X29.16 S0.0000
Y1.41
X22.08
X21.98 S191.9647
X21.78 S897.1412
X9.18 S999.0000
X9.08 S438.7765
X8.08 S0.0000
X7.98 S814.8706
X7.58 S999.0000
X7.48 S125.3647
X0.39 S0.0000
Y1.61
X7.48
X7.98 S999.0000
X8.08 S814.8706
X15.16 S0.0000
Y1.81
X8.08
X7.98 S814.8706
X7.48 S999.0000
X0.39 S0.0000
Y2.01
X7.48
X7.98 S999.0000
X8.08 S814.8706
X15.16 S0.0000
Y2.21
X8.08
X7.98 S814.8706
X7.48 S999.0000
X0.39 S0.0000
Y2.41
X7.48
X7.98 S999.0000
X8.08 S814.8706
X8.68 S0.0000
X8.78 S94.0235
X9.18 S999.0000
X9.28 S235.0588
X16.36 S0.0000
X16.56 Y2.61
X9.48
X9.38 S188.0471
X8.78 S999.0000
X8.68 S814.8706
X8.08 S0.0000
X7.98 S814.8706
X7.48 S999.0000
X0.39 S0.0000
Y2.81
X7.48
X7.98 S999.0000
X8.08 S814.8706
X8.68 S0.0000
X8.78 S235.0588
X9.58 S999.0000
X9.68 S58.7647
X16.76 S0.0000
X16.96 Y3.01
X9.88
X9.78 S246.8118
X8.98 S999.0000
X8.88 S352.5882
X8.08 S0.0000
X7.98 S814.8706
X7.48 S999.0000
X0.39 S0.0000
Y3.21
X7.48
X7.98 S999.0000
X8.08 S814.8706
X9.08 S0.0000
X9.18 S188.0471
X9.98 S999.0000
X10.08 S152.7882
X17.16 S0.0000
X22.16 Y3.41
X15.08
X14.98 S125.3647
X14.58 S999.0000
X14.48 S799.2000
X10.28 S0.0000
X10.18 S152.7882
X9.38 S999.0000
X9.28 S305.5765
X8.08 S0.0000
X7.98 S814.8706
X7.48 S999.0000
X0.39 S0.0000
Y3.61
X7.48
X7.98 S999.0000
X8.08 S814.8706
X9.48 S0.0000
X9.58 S329.0824
X10.38 S999.0000
X10.48 S246.8118
X14.28 S0.0000
X14.38 S756.1059
X14.98 S999.0000
X15.08 S125.3647
X22.16 S0.0000
Y3.81
X15.08
X14.98 S15.6706
X14.18 S999.0000
X14.08 S885.3882
X10.68 S0.0000
X10.58 S109.6941
X9.78 S999.0000
X9.68 S180.2118
X8.08 S0.0000
X7.98 S814.8706
X7.48 S999.0000
X0.39 S0.0000
Y4.01
X7.48
X7.98 S999.0000
X8.08 S814.8706
X9.88 S0.0000
X9.98 S329.0824
X10.78 S999.0000
X10.88 S188.0471
X13.88 S0.0000
X13.98 S767.8588
X14.58 S999.0000
X14.68 S971.5765
X21.76 S0.0000
X21.56 Y4.21
X14.48
X13.78 S999.0000
X13.68 S744.3529
X11.08 S0.0000
X10.98 S235.0588
X10.18 S999.0000
X10.08 S305.5765
X8.08 S0.0000
X7.98 S814.8706
X7.48 S999.0000
X0.39 S0.0000
Y4.41
X7.48
X7.98 S999.0000
X8.08 S814.8706
X10.28 S0.0000
X10.38 S188.0471
X11.08 S999.0000
X13.48 S0.0000
X13.58 S940.2353
X14.28 S999.0000
X17.48 S0.0000
X22.28 S3.9176
X29.36 S0.0000
Y4.61
X22.28
X17.48 S27.4235
X14.08 S0.0000
X13.98 S983.3294
X13.38 S999.0000
X13.28 S744.3529
X11.48 S0.0000
X11.38 S215.4706
X10.58 S999.0000
X10.48 S387.8471
X8.08 S0.0000
X7.98 S814.8706
X7.48 S999.0000
X0.39 S0.0000
Y4.81
X7.48
X7.98 S999.0000
X8.08 S814.8706
X10.68 S0.0000
X10.78 S274.2353
X11.58 S999.0000
X11.68 S215.4706
X13.08 S0.0000
X13.18 S767.8588
X13.88 S999.0000
X17.48 S0.0000
X22.28 S50.9294
X29.36 S0.0000
Y5.01
X22.28
X17.48 S74.4353
X13.68 S0.0000
X13.58 S983.3294
X12.98 S999.0000
X12.88 S885.3882
X11.88 S0.0000
X11.78 S58.7647
X10.98 S999.0000
X10.88 S235.0588
X8.08 S0.0000
X7.98 S814.8706
X7.48 S999.0000
X0.39 S0.0000
Y5.21
X7.48
X7.98 S999.0000
X8.08 S814.8706
X11.08 S0.0000
X11.18 S352.5882
X11.98 S999.0000
X12.08 S246.8118
X12.68 S0.0000
X12.78 S720.8471
X13.48 S999.0000
X17.48 S0.0000
X22.28 S97.9412
X29.36 S0.0000
Y5.41
X22.28
X17.48 S121.4471
X13.48 S0.0000
X13.38 S11.7529
X12.58 S999.0000
X12.38 S838.3765
X12.18 S152.7882
X11.38 S999.0000
X11.28 S188.0471
X8.08 S0.0000
X7.98 S814.8706
X7.48 S999.0000
X0.39 S0.0000
Y5.61
X7.48
X7.98 S999.0000
X8.08 S814.8706
X11.48 S0.0000
X11.58 S274.2353
X12.98 S999.0000
X13.08 S971.5765
X17.48 S0.0000
X22.28 S144.9529
X29.36 S0.0000
Y5.81
X22.28
X17.48 S168.4588
X12.88 S0.0000
X11.78 S999.0000
X11.68 S344.7529
X8.08 S0.0000
X7.98 S814.8706
X7.48 S999.0000
X0.39 S0.0000
Y6.01
X7.48
X7.98 S999.0000
X8.08 S814.8706
X11.88 S0.0000
X12.78 S999.0000
X12.88 S125.3647
X17.48 S0.0000
X22.28 S191.9647
X29.36 S0.0000
Y6.21
X22.28
X17.48 S215.4706
X13.08 S0.0000
X12.98 S188.0471
X11.78 S999.0000
X11.68 S767.8588
X8.08 S0.0000
X7.98 S814.8706
X7.48 S999.0000
X0.39 S0.0000
Y6.41
X7.48
X7.98 S999.0000
X8.08 S814.8706
X11.48 S0.0000
X11.58 S744.3529
X13.18 S999.0000
X13.28 S235.0588
X17.48 S0.0000
X22.28 S238.9765
X29.36 S0.0000
Y6.61
X22.28
X17.48 S262.4824
X13.48 S0.0000
X13.38 S58.7647
X12.58 S999.0000
X12.38 S180.2118
X12.18 S11.7529
X11.38 S999.0000
X11.28 S940.2353
X8.08 S0.0000
X7.98 S814.8706
X7.48 S999.0000
X0.39 S0.0000
Y6.81
X7.48
X7.98 S999.0000
X8.08 S814.8706
X11.08 S0.0000
X11.18 S744.3529
X11.78 S999.0000
X11.88 S983.3294
X12.68 S0.0000
X12.78 S344.7529
X13.58 S999.0000
X13.68 S215.4706
X17.48 S0.0000
X22.28 S285.9882
X29.36 S0.0000
Y7.01
X22.28
X17.48 S313.4118
X13.88 S0.0000
X13.78 S215.4706
X12.98 S999.0000
X12.88 S274.2353
X11.68 S0.0000
X10.98 S999.0000
X10.88 S767.8588
X8.08 S0.0000
X7.98 S814.8706
X7.48 S999.0000
X0.39 S0.0000
Y7.21
X7.48
X7.98 S999.0000
X8.08 S814.8706
X10.68 S0.0000
X10.78 S885.3882
X11.38 S999.0000
X11.48 S983.3294
X13.08 S0.0000
X13.18 S235.0588
X13.98 S999.0000
X14.08 S58.7647
X17.48 S0.0000
X22.28 S336.9176
X29.36 S0.0000
Y7.41
X22.28
X17.48 S360.4235
X14.28 S0.0000
X14.18 S246.8118
X13.38 S999.0000
X13.28 S352.5882
X11.28 S0.0000
X10.58 S999.0000
X10.48 S756.1059
X8.08 S0.0000
X7.98 S814.8706
X7.48 S999.0000
X0.39 S0.0000
Y7.61
X7.48
X7.98 S999.0000
X8.08 S814.8706
X10.28 S0.0000
X10.38 S799.2000
X11.08 S999.0000
X13.48 S0.0000
X13.58 S235.0588
X14.38 S999.0000
X14.48 S188.0471
X17.48 S0.0000
X22.28 S383.9294
X29.36 S0.0000
Y7.81
X22.28
X17.48 S407.4353
X14.68 S0.0000
X14.58 S109.6941
X13.78 S999.0000
X13.68 S274.2353
X10.88 S0.0000
X10.78 S971.5765
X10.18 S999.0000
X10.08 S838.3765
X8.08 S0.0000
X7.98 S814.8706
X7.48 S999.0000
X0.39 S0.0000
Y8.01
X7.48
X7.98 S999.0000
X8.08 S814.8706
X9.88 S0.0000
X9.98 S720.8471
X10.68 S999.0000
X13.88 S0.0000
X13.98 S344.7529
X14.78 S999.0000
X14.88 S250.7294
X17.48 S0.0000
X22.28 S430.9412
X29.36 S0.0000
Y8.21
X22.28
X17.48 S454.4471
X15.08 S0.0000
X14.98 S109.6941
X14.18 S999.0000
X14.08 S180.2118
X10.68 S0.0000
X10.58 S15.6706
X9.78 S999.0000
X9.68 S885.3882
X8.08 S0.0000
X7.98 S814.8706
X7.48 S999.0000
X0.39 S0.0000
Y8.41
X7.48
X7.98 S999.0000
X8.08 S814.8706
X9.48 S0.0000
X9.58 S814.8706
X10.18 S999.0000
X10.28 S955.9059
X14.28 S0.0000
X14.38 S329.0824
X14.98 S999.0000
X15.08 S125.3647
X17.48 S0.0000
X22.28 S477.9529
X29.36 S0.0000
Y8.61
X22.28
X17.48 S501.4588
X15.08 S0.0000
X14.98 S54.8471
X14.58 S999.0000
X14.48 S329.0824
X10.08 S0.0000
X9.38 S999.0000
X9.28 S728.6824
X8.08 S0.0000
X7.98 S814.8706
X7.48 S999.0000
X0.39 S0.0000
Y8.81
X7.48
X7.98 S999.0000
X8.08 S814.8706
X9.08 S0.0000
X9.18 S940.2353
X9.98 S999.0000
X10.08 S11.7529
X14.68 S0.0000
X14.78 S7.8353
X17.48 S0.0000
X22.28 S524.9647
X29.36 S0.0000
Y9.01
X22.28
X17.48 S548.4706
X9.68 S0.0000
X9.58 S983.3294
X8.98 S999.0000
X8.88 S744.3529
X8.08 S0.0000
X7.98 S814.8706
X7.48 S999.0000
X0.39 S0.0000
Y9.21
X7.48
X7.98 S999.0000
X8.08 S814.8706
X8.68 S0.0000
X8.78 S172.3765
X9.48 S999.0000
X17.48 S0.0000
X22.28 S571.9765
X29.36 S0.0000
Y9.41
X22.28
X17.48 S599.4000
X9.28 S0.0000
X9.18 S979.4118
X8.98 S999.0000
X8.88 S979.4118
X8.08 S0.0000
X7.98 S814.8706
X7.48 S999.0000
X0.39 S0.0000
Y9.61
X7.48
X7.98 S999.0000
X8.08 S814.8706
X9.08 S0.0000
X9.18 S626.8235
X17.48 S0.0000
X22.28 S618.9882
X29.36 S0.0000
Y9.81
X22.28
X17.48 S642.4941
X8.08 S0.0000
X7.98 S814.8706
X7.48 S999.0000
X0.39 S0.0000
Y10.01
X7.48
X7.98 S999.0000
X8.08 S814.8706
X17.48 S0.0000
X22.28 S666.0000
X29.36 S0.0000
Y10.21
X22.28
X17.48 S689.5059
X8.08 S0.0000
X7.98 S814.8706
X7.48 S999.0000
X0.39 S0.0000
Y10.41
X7.48
X7.98 S999.0000
X8.08 S814.8706
X17.48 S0.0000
X22.28 S713.0118
X29.36 S0.0000
Y10.61
X22.28
X17.48 S736.5176
X8.08 S0.0000
X7.98 S814.8706
X7.48 S999.0000
X0.39 S0.0000
Y10.81
X7.48
X7.98 S999.0000
X8.08 S814.8706
X17.48 S0.0000
X22.28 S760.0235
X29.36 S0.0000
Y11.01
X22.28
X17.48 S783.5294
X8.08 S0.0000
X7.98 S814.8706
X7.48 S999.0000
X0.39 S0.0000
Y11.21
X7.48
X7.98 S999.0000
X8.08 S814.8706
X17.48 S0.0000
X22.28 S807.0353
X29.36 S0.0000
Y11.41
X22.28
X17.48 S834.4588
X8.08 S0.0000
X7.98 S814.8706
X7.48 S999.0000
X0.39 S0.0000
Y11.61
X7.48
X7.98 S999.0000
X8.08 S814.8706
X17.48 S0.0000
X22.28 S854.0471
X29.36 S0.0000
Y11.81
X22.28
X17.48 S881.4706
X8.08 S0.0000
X7.98 S814.8706
X7.48 S999.0000
X0.39 S0.0000
Y12.01
X7.48
X7.98 S999.0000
X8.08 S814.8706
X17.48 S0.0000
X22.28 S904.9765
X29.36 S0.0000
Y12.21
X22.28
X17.48 S928.4824
X8.08 S0.0000
X7.98 S814.8706
X7.48 S999.0000
X0.39 S0.0000
Y12.41
X7.48
X7.98 S999.0000
X8.08 S814.8706
X9.88 S0.0000
X9.98 S3.9176
X10.18 S7.8353
X10.38 S11.7529
X10.58 S19.5882
X10.78 S27.4235
X10.98 S35.2588
X11.18 S43.0941
X11.38 S50.9294
X11.58 S58.7647
X11.78 S66.6000
X11.98 S74.4353
X12.18 S78.3529
X12.38 S90.1059
X12.58 S97.9412
X12.78 S101.8588
X12.98 S109.6941
X13.18 S117.5294
X13.38 S125.3647
X13.58 S133.2000
X13.78 S144.9529
X13.98 S148.8706
X14.18 S156.7059
X14.38 S164.5412
X14.58 S172.3765
X14.78 S180.2118
X14.98 S184.1294
X15.18 S195.8824
X15.38 S203.7176
X15.58 S207.6353
X15.78 S219.3882
X15.98 S227.2235
X16.18 S235.0588
X16.38 S238.9765
X16.58 S246.8118
X16.78 S254.6471
X16.98 S266.4000
X17.18 S270.3176
X17.38 S278.1529
X17.58 S814.8706
X17.78 S822.7059
X17.98 S834.4588
X18.18 S838.3765
X18.38 S846.2118
X18.58 S854.0471
X18.78 S861.8824
X18.98 S869.7176
X19.18 S877.5529
X19.38 S885.3882
X19.58 S893.2235
X19.78 S901.0588
X19.98 S908.8941
X20.18 S916.7294
X20.38 S924.5647
X20.58 S932.4000
X20.78 S940.2353
X20.98 S948.0706
X21.18 S951.9882
X21.38 S963.7412
X21.58 S967.6588
X21.78 S971.5765
X22.28 S951.9882
X29.36 S0.0000
Y12.61
X22.28
X21.78 S975.4941
X21.58 S999.0000
X21.38 S995.0824
X21.18 S987.2471
X20.98 S963.7412
X20.78 S948.0706
X20.58 S928.4824
X20.38 S912.8118
X20.18 S897.1412
X19.98 S873.6353
X19.78 S861.8824
X19.58 S842.2941
X19.38 S826.6235
X19.18 S807.0353
X18.98 S791.3647
X18.78 S771.7765
X18.58 S756.1059
X18.38 S736.5176
X18.18 S720.8471
X17.98 S701.2588
X17.78 S689.5059
X17.58 S669.9176
X17.38 S650.3294
X17.18 S634.6588
X16.98 S615.0706
X16.78 S603.3176
X16.58 S579.8118
X16.38 S564.1412
X16.18 S544.5529
X15.98 S532.8000
X15.78 S513.2118
X15.58 S493.6235
X15.38 S477.9529
X15.18 S462.2824
X14.98 S446.6118
X14.78 S419.1882
X14.58 S407.4353
X14.38 S391.7647
X14.18 S372.1765
X13.98 S356.5059
X13.78 S336.9176
X13.58 S325.1647
X13.38 S301.6588
X13.18 S285.9882
X12.98 S270.3176
X12.78 S246.8118
X12.58 S231.1412
X12.38 S219.3882
X12.18 S199.8000
X11.98 S180.2118
X11.78 S168.4588
X11.58 S148.8706
X11.38 S129.2824
X11.18 S109.6941
X10.98 S94.0235
X10.78 S78.3529
X10.58 S58.7647
X10.38 S43.0941
X10.18 S27.4235
X9.98 S11.7529
X9.88 S3.9176
X8.08 S0.0000
X7.98 S814.8706
X7.48 S999.0000
X0.39 S0.0000
Y12.81
X7.48
X7.98 S999.0000
X8.08 S814.8706
X9.88 S0.0000
X9.98 S3.9176
X10.18 S11.7529
X10.38 S27.4235
X10.58 S43.0941
X10.78 S58.7647
X10.98 S78.3529
X11.18 S94.0235
X11.38 S109.6941
X11.58 S129.2824
X11.78 S148.8706
X11.98 S168.4588
X12.18 S180.2118
X12.38 S199.8000
X12.58 S219.3882
X12.78 S231.1412
X12.98 S246.8118
X13.18 S270.3176
X13.38 S285.9882
X13.58 S301.6588
X13.78 S325.1647
X13.98 S336.9176
X14.18 S356.5059
X14.38 S372.1765
X14.58 S391.7647
X14.78 S407.4353
X14.98 S419.1882
X15.18 S446.6118
X15.38 S462.2824
X15.58 S477.9529
X15.78 S493.6235
X15.98 S513.2118
X16.18 S532.8000
X16.38 S544.5529
X16.58 S564.1412
X16.78 S579.8118
X16.98 S603.3176
X17.18 S615.0706
X17.38 S634.6588
X17.58 S650.3294
X17.78 S669.9176
X17.98 S689.5059
X18.18 S701.2588
X18.38 S720.8471
X18.58 S736.5176
X18.78 S756.1059
X18.98 S771.7765
X19.18 S791.3647
X19.38 S807.0353
X19.58 S826.6235
X19.78 S842.2941
X19.98 S861.8824
X20.18 S873.6353
X20.38 S897.1412
X20.58 S912.8118
X20.78 S928.4824
X20.98 S948.0706
X21.18 S963.7412
X21.38 S987.2471
X21.58 S995.0824
X22.28 S999.0000
X29.36 S0.0000
Y13.01
X22.28
X21.78 S438.7765
X21.58 S999.0000
X21.38 S995.0824
X21.18 S987.2471
X20.98 S963.7412
X20.78 S948.0706
X20.58 S928.4824
X20.38 S912.8118
X20.18 S897.1412
X19.98 S873.6353
X19.78 S861.8824
X19.58 S842.2941
X19.38 S826.6235
X19.18 S807.0353
X18.98 S791.3647
X18.78 S771.7765
X18.58 S756.1059
X18.38 S736.5176
X18.18 S720.8471
X17.98 S701.2588
X17.78 S689.5059
X17.58 S669.9176
X17.38 S650.3294
X17.18 S634.6588
X16.98 S615.0706
X16.78 S603.3176
X16.58 S579.8118
X16.38 S564.1412
X16.18 S544.5529
X15.98 S532.8000
X15.78 S513.2118
X15.58 S493.6235
X15.38 S477.9529
X15.18 S462.2824
X14.98 S446.6118
X14.78 S419.1882
X14.58 S407.4353
X14.38 S391.7647
X14.18 S372.1765
X13.98 S356.5059
X13.78 S336.9176
X13.58 S325.1647
X13.38 S301.6588
X13.18 S285.9882
X12.98 S270.3176
X12.78 S246.8118
X12.58 S231.1412
X12.38 S219.3882
X12.18 S199.8000
X11.98 S180.2118
X11.78 S168.4588
X11.58 S148.8706
X11.38 S129.2824
X11.18 S109.6941
X10.98 S94.0235
X10.78 S78.3529
X10.58 S58.7647
X10.38 S43.0941
X10.18 S27.4235
X9.98 S11.7529
X9.88 S3.9176
X8.08 S0.0000
X7.98 S814.8706
X7.48 S999.0000
X0.39 S0.0000
Y13.21
X7.48
X7.98 S999.0000
X8.08 S814.8706
X9.88 S0.0000
X9.98 S3.9176
X10.18 S11.7529
X10.38 S27.4235
X10.58 S43.0941
X10.78 S58.7647
X10.98 S78.3529
X11.18 S94.0235
X11.38 S109.6941
X11.58 S129.2824
X11.78 S148.8706
X11.98 S168.4588
X12.18 S180.2118
X12.38 S199.8000
X12.58 S219.3882
X12.78 S231.1412
X12.98 S246.8118
X13.18 S270.3176
X13.38 S285.9882
X13.58 S301.6588
X13.78 S325.1647
X13.98 S336.9176
X14.18 S356.5059
X14.38 S372.1765
X14.58 S391.7647
X14.78 S407.4353
X14.98 S419.1882
X15.18 S446.6118
X15.38 S462.2824
X15.58 S477.9529
X15.78 S493.6235
X15.98 S513.2118
X16.18 S532.8000
X16.38 S544.5529
X16.58 S564.1412
X16.78 S579.8118
X16.98 S603.3176
X17.18 S615.0706
X17.38 S634.6588
X17.58 S650.3294
X17.78 S669.9176
X17.98 S689.5059
X18.18 S701.2588
X18.38 S720.8471
X18.58 S736.5176
X18.78 S756.1059
X18.98 S771.7765
X19.18 S791.3647
X19.38 S807.0353
X19.58 S826.6235
X19.78 S842.2941
X19.98 S861.8824
X20.18 S873.6353
X20.38 S897.1412
X20.58 S912.8118
X20.78 S928.4824
X20.98 S948.0706
X21.18 S963.7412
X21.38 S987.2471
X21.58 S995.0824
X21.68 S999.0000
X28.76 S0.0000
Y13.41
X21.68
X21.58 S999.0000
X21.38 S995.0824
X21.18 S987.2471
X20.98 S963.7412
X20.78 S948.0706
X20.58 S928.4824
X20.38 S912.8118
X20.18 S897.1412
X19.98 S873.6353
X19.78 S861.8824
X19.58 S842.2941
X19.38 S826.6235
X19.18 S807.0353
X18.98 S791.3647
X18.78 S771.7765
X18.58 S756.1059
X18.38 S736.5176
X18.18 S720.8471
X17.98 S701.2588
X17.78 S689.5059
X17.58 S669.9176
X17.38 S650.3294
X17.18 S634.6588
X16.98 S615.0706
X16.78 S603.3176
X16.58 S579.8118
X16.38 S564.1412
X16.18 S544.5529
X15.98 S532.8000
X15.78 S513.2118
X15.58 S493.6235
X15.38 S477.9529
X15.18 S462.2824
X14.98 S446.6118
X14.78 S419.1882
X14.58 S407.4353
X14.38 S391.7647
X14.18 S372.1765
X13.98 S356.5059
X13.78 S336.9176
X13.58 S325.1647
X13.38 S301.6588
X13.18 S285.9882
